images/five.svg

<svg width="40" height="56" fill="none" xmlns="http://www.w3.org/2000/svg"><path d="M36.7692 11.844h-23.712v10.488c1.0133-1.1147 2.432-2.0267 4.256-2.736 1.824-.7093 3.8-1.064 5.928-1.064 3.8 0 6.9413.8613 9.424 2.584 2.5333 1.7227 4.3826 3.952 5.548 6.688 1.1653 2.736 1.748 5.7 1.748 8.892 0 5.928-1.672 10.64-5.016 14.136-3.344 3.4453-8.056 5.168-14.136 5.168-4.0534 0-7.5747-.684-10.564-2.052-2.98938-1.4187-5.29471-3.3693-6.91604-5.852C1.70782 45.6133.821157 42.7507.669157 39.508H13.3612c.304 1.5707 1.0386 2.888 2.204 3.952 1.1653 1.0133 2.7613 1.52 4.788 1.52 2.3813 0 4.1546-.76 5.32-2.28 1.1653-1.52 1.748-3.5467 1.748-6.08 0-2.4827-.608-4.3827-1.824-5.7-1.216-1.3173-2.9894-1.976-5.32-1.976-1.7227 0-3.1414.4307-4.256 1.292-1.1147.8107-1.8494 1.9-2.204 3.268H1.27716V.444H36.7692v11.4z" fill="#fff"/></svg>

<svg width="40" height="56" viewBox="0 0 40 56" fill="none" xmlns="http://www.w3.org/2000/svg">
<path d="M36.7692 11.844H13.0572V22.332C14.0705 21.2173 15.4892 20.3053 17.3132 19.596C19.1372 18.8867 21.1132 18.532 23.2412 18.532C27.0412 18.532 30.1825 19.3933 32.6652 21.116C35.1985 22.8387 37.0478 25.068 38.2132 27.804C39.3785 30.54 39.9612 33.504 39.9612 36.696C39.9612 42.624 38.2892 47.336 34.9452 50.832C31.6012 54.2773 26.8892 56 20.8092 56C16.7558 56 13.2345 55.316 10.2452 53.948C7.25582 52.5293 4.95049 50.5787 3.32916 48.096C1.70782 45.6133 0.821157 42.7507 0.669157 39.508H13.3612C13.6652 41.0787 14.3998 42.396 15.5652 43.46C16.7305 44.4733 18.3265 44.98 20.3532 44.98C22.7345 44.98 24.5078 44.22 25.6732 42.7C26.8385 41.18 27.4212 39.1533 27.4212 36.62C27.4212 34.1373 26.8132 32.2373 25.5972 30.92C24.3812 29.6027 22.6078 28.944 20.2772 28.944C18.5545 28.944 17.1358 29.3747 16.0212 30.236C14.9065 31.0467 14.1718 32.136 13.8172 33.504H1.27716V0.444H36.7692V11.844Z" fill="white"/>
</svg>
